icons/sessions/qtile.svg

<?xml version="1.0" encoding="UTF-8"?>
<svg fill="none" viewBox="0 0 15 15" xmlns="http://www.w3.org/2000/svg">
 <path d="m8.5562 13.91c0.38916-0.0556 0.61153-0.4267 0.51888-0.7791l-0.22238-0.8163c-0.09266-0.3154-0.38916-0.5009-0.68566-0.4638-1.4269 0.204-2.7982-0.2783-3.7619-1.2059-1.7605-1.7625-1.7049-4.5638-0.01853-6.2521 1.742-1.7439 4.5216-1.7439 6.2265 0 1.0193 1.0204 1.4455 2.4118 1.2416 3.7661-0.037 0.29683 0.1483 0.59366 0.4633 0.68642l0.8154 0.22263c0.3521 0.09276 0.7227-0.12987 0.7783-0.51946 0.3336-2.0036-0.278-4.1371-1.8346-5.6584-2.5203-2.5231-6.6713-2.5231-9.173 0.01856-2.5388 2.5416-2.5388 6.6602 0 9.2018 1.5381 1.5398 3.6507 2.1335 5.6521 1.7995zm-1.9458-5.8068 4.4475 4.4525c0.2409 0.2412 0.6486 0.2412 0.8895 0l0.593-0.5936c0.2594-0.2598 0.2409-0.6493 0-0.8905l-4.4475-4.4525c-0.25944-0.25973-0.63007-0.25973-0.88951 0l-0.593 0.59367c-0.2409 0.24118-0.25944 0.63077 0 0.8905z" fill="#fff"/>
</svg>

<svg width="15" height="15" viewBox="0 0 15 15" fill="none" xmlns="http://www.w3.org/2000/svg">
<path d="M8.55615 13.9099C8.94531 13.8543 9.16768 13.4832 9.07503 13.1308L8.85265 12.3145C8.75999 11.9991 8.46349 11.8136 8.16699 11.8507C6.74008 12.0547 5.36876 11.5724 4.40513 10.6448C2.64465 8.88233 2.70025 6.08096 4.3866 4.39272C6.12855 2.64882 8.90825 2.64882 10.6131 4.39272C11.6324 5.41309 12.0586 6.80449 11.8547 8.1588C11.8177 8.45563 12.003 8.75246 12.318 8.84522L13.1334 9.06785C13.4855 9.16061 13.8561 8.93798 13.9117 8.54839C14.2453 6.54476 13.6337 4.41127 12.0771 2.89C9.55684 0.366914 5.40583 0.366918 2.90409 2.90856C0.365302 5.45019 0.365301 9.56876 2.90409 12.1104C4.44219 13.6502 6.55476 14.2439 8.55615 13.9099ZM6.61036 8.10314L11.0579 12.5556C11.2988 12.7968 11.7065 12.7968 11.9474 12.5556L12.5404 11.962C12.7998 11.7022 12.7813 11.3127 12.5404 11.0715L8.09287 6.61897C7.83343 6.35924 7.4628 6.35924 7.20336 6.61897L6.61036 7.21264C6.36946 7.45382 6.35092 7.84341 6.61036 8.10314Z" fill="white"/>
</svg>
